X:1
T: Room for Ramblers
N:
C:
S:
A:
O:
R:
M:4/4
K:D
I:speed 200
%W: A1
% voice 1 (1 lines, 39 notes)
K:D
M:4/4
L:1/16
D4 |F4 A4 B2 c2 d2 B2 |A2 F2 E2 D2 E6 D2 |F4 A4 d4 e2 f2 |e12 d2 e2 |f2 e2 d2 B2 d6 A2 |B2 c2 d2 F2 E6 A2 |F4 B4 E4 ^G4 |A12 D4 |
%W: A2
% voice 1 (1 lines, 38 notes)
F4 A4 B2 c2 d2 B2 |A2 F2 E2 D2 E6 D2 |F4 A4 d4 e2 f2 |e12 d2 e2 |f2 e2 d2 B2 d6 A2 |B2 c2 d2 F2 E6 A2 |F4 B4 E4 ^G4 |A12 e4 |
%W: B1
% voice 1 (1 lines, 24 notes)
e2 c2 B2 A2 B2 c2 d2 B2 |^A8 B8 |c4 f4 e2 d2 c2 B2 |B12 d4 |d2 A2 G2 F2 G6 A2 |
%W:
% voice 1 (1 lines, 27 notes)
B2 G2 d2 B2 c4 B2 A2 |d4 e2 f2 g2 f2 e2 d2 |d8 c6 B2 |A2 F2 B2 A2 G2 F2 E2 D2 |D12 e4 |
%W: B2
% voice 1 (1 lines, 24 notes)
e2 c2 B2 A2 B2 c2 d2 B2 |^A8 B8 |c4 f4 e2 d2 c2 B2 |B12 d4 |d2 A2 G2 F2 G6 A2 |
%W:
% voice 1 (1 lines, 26 notes)
B2 G2 d2 B2 c4 B2 A2 |d4 e2 f2 g2 f2 e2 d2 |d8 c6 B2 |A2 F2 B2 A2 G2 F2 E2 D2 |D12 ||
